public/brands/DBase.svg

<?xml version="1.0" encoding="UTF-8"?>
<svg width="509px" height="111px" viewBox="0 0 509 111" version="1.1" xmlns="http://www.w3.org/2000/svg" xmlns:xlink="http://www.w3.org/1999/xlink">
    <title>dBase Logo</title>
    <desc>dBase is a database management system (DBMS) that the first widely used for microcomputers, published by Ashton-Tate for CP / M, and later for Apple II, Apple Macintosh, UNIX, VMS, and IBM PC for DOS where it became one of the best-selling software titles for a few years.</desc>
    <defs></defs>
    <g stroke="none" stroke-width="1" fill="none" fill-rule="evenodd">
        <g>
            <path d="M3.98875,5.98875 L3.98875,110.27 L99.3325,110.27 L99.3325,5.98875 L3.98875,5.98875 L3.98875,5.98875 Z M65.92625,11.2075 L87.23875,11.2075 L87.23875,103.3325 L65.92625,103.3325 L65.92625,93.73875 C63.00552,97.64616 59.78266,100.51695 56.27,102.3325 C52.75725,104.14806 48.70029,105.05125 44.0825,105.05125 C35.91246,105.05125 29.2068,101.80536 23.9575,95.3325 C18.70816,88.82019 16.0825,80.46115 16.0825,70.23875 C16.0825,60.01642 18.70816,51.64916 23.9575,45.17625 C29.2068,38.66399 35.91246,35.42632 44.0825,35.42625 C48.66082,35.42632 52.726,36.35254 56.23875,38.2075 C59.79088,40.02312 63.00552,42.87088 65.92625,46.73875 L65.92625,11.2075 L65.92625,11.2075 Z M51.9575,50.80125 C47.45804,50.8013 44.02131,52.45468 41.61375,55.77 C39.24561,59.0854 38.05122,63.92381 38.05125,70.23875 C38.05122,76.55375 39.24561,81.36091 41.61375,84.67625 C44.02131,87.99163 47.45804,89.64501 51.9575,89.645 C56.49635,89.64501 59.96433,87.99163 62.3325,84.67625 C64.74003,81.36091 65.92619,76.55375 65.92625,70.23875 C65.92619,63.92381 64.74003,59.0854 62.3325,55.77 C59.96433,52.45468 56.49635,50.8013 51.9575,50.80125 L51.9575,50.80125 Z" fill="#4D4D4D"></path>
            <path d="M153.07851,42.61499 C157.70329,42.61506 161.21006,41.67756 163.59878,39.80249 C165.98737,37.92756 167.18169,35.16194 167.18177,31.50562 C167.18169,27.89632 165.98737,25.15414 163.59878,23.27905 C161.21006,21.35726 157.70329,20.39633 153.07851,20.39624 L136.84071,20.39624 L136.84071,42.61499 L153.07851,42.61499 M154.06955,88.52905 C159.9649,88.52907 164.38646,87.38064 167.33424,85.08374 C170.33269,82.78689 171.83196,79.31814 171.83203,74.67749 C171.83196,70.13065 170.35811,66.73222 167.41047,64.48218 C164.46269,62.18535 160.01572,61.03691 154.06955,61.03687 L136.84071,61.03687 L136.84071,88.52905 L154.06955,88.52905 M181.36127,50.77124 C187.66317,52.4588 192.54212,55.57598 195.99817,60.1228 C199.45399,64.66972 201.18196,70.24784 201.18207,76.85718 C201.18196,86.9822 197.47191,94.52907 190.05192,99.4978 C182.63174,104.46656 171.34914,106.95093 156.2041,106.95093 L107.49067,106.95093 L107.49067,1.97437 L151.55384,1.97437 C167.35958,1.97447 178.79464,4.17759 185.85906,8.58374 C192.97412,12.99009 196.5317,20.04477 196.5318,29.7478 C196.5317,34.85725 195.23573,39.21662 192.64388,42.82593 C190.05182,46.38849 186.29097,49.03692 181.36127,50.77124" fill="#eeeeee"></path>
            <path d="M284.64118,87.82593 L238.7484,87.82593 L231.5062,106.95093 L202.0037,106.95093 L244.16101,1.97437 L279.15234,1.97437 L321.30965,106.95093 L291.80716,106.95093 L284.64118,87.82593 M246.06685,68.34937 L277.2465,68.34937 L261.6948,26.58374 L246.06685,68.34937" fill="#eeeeee"></path>
            <path d="M409.02939,5.27905 L409.02939,27.4978 C402.77814,24.91976 396.67943,22.97445 390.73327,21.66187 C384.78696,20.34945 379.17108,19.6932 373.8856,19.69312 C366.87203,19.6932 361.68814,20.58383 358.33389,22.36499 C354.97956,24.14632 353.30242,26.91195 353.30245,30.66187 C353.30242,33.47444 354.42052,35.67756 356.65674,37.27124 C358.94372,38.81818 363.06034,40.15412 369.00663,41.27905 L381.50898,43.59937 C394.16372,45.94318 403.1593,49.50567 408.49575,54.28687 C413.83203,59.06816 416.50021,65.86503 416.50032,74.67749 C416.50021,86.25564 412.76475,94.88063 405.29394,100.55249 C397.87376,106.17749 386.51493,108.98999 371.21741,108.98999 C364.00056,108.98999 356.75836,108.35718 349.49077,107.09155 C342.22311,105.82593 334.95549,103.95093 327.68788,101.46655 L327.68788,78.61499 C334.95549,82.17752 341.969,84.87283 348.72842,86.70093 C355.53861,88.4822 362.09472,89.37282 368.39676,89.3728 C374.80034,89.37282 379.70472,88.38845 383.10989,86.41968 C386.51493,84.45095 388.21748,81.63845 388.21756,77.98218 C388.21748,74.70096 387.04857,72.16971 384.7108,70.38843 C382.42372,68.60722 377.82428,67.01347 370.91247,65.60718 L359.55363,63.28687 C348.16935,61.03691 339.83446,57.45098 334.54893,52.52905 C329.31419,47.60724 326.69684,40.97443 326.69685,32.63062 C326.69684,22.17758 330.35606,14.13852 337.67452,8.51343 C344.99294,2.88853 355.5132,0.07604 369.23533,0.07593 C375.48645,0.07604 381.9155,0.52135 388.52249,1.41187 C395.12935,2.25572 401.96498,3.54478 409.02939,5.27905" fill="#eeeeee"></path>
            <polyline fill="#eeeeee" points="427.16458 1.97437 506.37154 1.97437 506.37154 22.4353 456.51461 22.4353 456.51461 41.98218 503.39842 41.98218 503.39842 62.44312 456.51461 62.44312 456.51461 86.48999 508.04869 86.48999 508.04869 106.95093 427.16458 106.95093 427.16458 1.97437"></polyline>
            <path d="M0.78085,2.66968 L0.78085,106.95093 L96.1246,106.95093 L96.1246,2.66968 L0.78085,2.66968 L0.78085,2.66968 Z M62.71835,7.88843 L84.03085,7.88843 L84.03085,100.01343 L62.71835,100.01343 L62.71835,90.41968 C59.79762,94.32709 56.57476,97.19788 53.0621,99.01343 C49.54935,100.82899 45.49239,101.73218 40.8746,101.73218 C32.70456,101.73218 25.9989,98.48629 20.7496,92.01343 C15.50026,85.50112 12.8746,77.14208 12.8746,66.91968 C12.8746,56.69735 15.50026,48.33009 20.7496,41.85718 C25.9989,35.34492 32.70456,32.10725 40.8746,32.10718 C45.45292,32.10725 49.5181,33.03347 53.03085,34.88843 C56.58298,36.70405 59.79762,39.55181 62.71835,43.41968 L62.71835,7.88843 L62.71835,7.88843 Z M48.7496,47.48218 C44.25014,47.48223 40.81341,49.13561 38.40585,52.45093 C36.03771,55.76633 34.84332,60.60474 34.84335,66.91968 C34.84332,73.23468 36.03771,78.04184 38.40585,81.35718 C40.81341,84.67256 44.25014,86.32594 48.7496,86.32593 C53.28845,86.32594 56.75643,84.67256 59.1246,81.35718 C61.53213,78.04184 62.71829,73.23468 62.71835,66.91968 C62.71829,60.60474 61.53213,55.76633 59.1246,52.45093 C56.75643,49.13561 53.28845,47.48223 48.7496,47.48218 L48.7496,47.48218 Z" fill="rgb(255, 95, 86)"></path>
        </g>
    </g>
</svg>

<svg width="509" height="111" viewBox="0 0 509 111" xmlns="http://www.w3.org/2000/svg"><title>dBase Logo</title><desc>dBase is a database management system (DBMS) that the first widely used for microcomputers, published by Ashton-Tate for CP / M, and later for Apple II, Apple Macintosh, UNIX, VMS, and IBM PC for DOS where it became one of the best-selling software titles for a few years.</desc><g fill="none" fill-rule="evenodd"><path d="M3.989 5.989V110.27h95.344V5.989H3.989zm61.937 5.218H87.24v92.126H65.926v-9.594c-2.92 3.907-6.143 6.778-9.656 8.593-3.513 1.816-7.57 2.72-12.188 2.72-8.17 0-14.875-3.247-20.125-9.72-5.249-6.512-7.875-14.87-7.875-25.093s2.626-18.59 7.875-25.063c5.25-6.512 11.955-9.75 20.126-9.75 4.578 0 8.643.927 12.156 2.782 3.552 1.815 6.767 4.663 9.687 8.53v-35.53zM51.958 50.802c-4.5 0-7.937 1.654-10.344 4.969-2.368 3.315-3.563 8.154-3.563 14.469 0 6.315 1.195 11.122 3.563 14.437 2.407 3.316 5.844 4.969 10.344 4.969 4.538 0 8.006-1.653 10.375-4.969 2.407-3.315 3.593-8.122 3.593-14.437 0-6.315-1.186-11.154-3.593-14.469-2.369-3.315-5.837-4.969-10.375-4.969z" fill="#4D4D4D"/><path d="M153.079 42.615c4.624 0 8.131-.937 10.52-2.813 2.388-1.874 3.583-4.64 3.583-8.296 0-3.61-1.195-6.352-3.583-8.227-2.389-1.922-5.896-2.883-10.52-2.883H136.84v22.219h16.238m.99 45.914c5.896 0 10.317-1.148 13.265-3.445 2.999-2.297 4.498-5.766 4.498-10.407 0-4.546-1.474-7.945-4.422-10.195-2.947-2.297-7.394-3.445-13.34-3.445h-17.23v27.492h17.23m27.291-37.758c6.302 1.688 11.181 4.805 14.637 9.352 3.456 4.547 5.184 10.125 5.184 16.734 0 10.125-3.71 17.672-11.13 22.64-7.42 4.97-18.703 7.454-33.848 7.454h-48.713V1.974h44.063c15.806 0 27.24 2.204 34.305 6.61 7.115 4.406 10.673 11.46 10.673 21.164 0 5.11-1.296 9.469-3.888 13.078-2.592 3.562-6.353 6.21-11.283 7.945M284.641 87.826h-45.893l-7.242 19.125h-29.502L244.16 1.974h34.991l42.158 104.977h-29.503l-7.166-19.125m-38.574-19.477h31.18l-15.552-41.765-15.628 41.765M409.03 5.279v22.219c-6.252-2.578-12.35-4.524-18.297-5.836-5.946-1.313-11.562-1.969-16.847-1.969-7.014 0-12.198.89-15.552 2.672-3.354 1.781-5.032 4.547-5.032 8.297 0 2.812 1.119 5.016 3.355 6.61 2.287 1.546 6.403 2.882 12.35 4.007l12.502 2.32c12.655 2.344 21.65 5.907 26.987 10.688 5.336 4.781 8.004 11.578 8.004 20.39 0 11.579-3.735 20.204-11.206 25.875-7.42 5.625-18.78 8.438-34.077 8.438-7.216 0-14.459-.633-21.726-1.898-7.268-1.266-14.536-3.141-21.803-5.625V78.615c7.267 3.563 14.281 6.258 21.04 8.086 6.81 1.781 13.367 2.672 19.669 2.672 6.403 0 11.308-.985 14.713-2.953 3.405-1.969 5.107-4.782 5.108-8.438 0-3.281-1.17-5.812-3.507-7.594-2.287-1.78-6.887-3.375-13.799-4.78l-11.358-2.321c-11.385-2.25-19.72-5.836-25.005-10.758-5.235-4.922-7.852-11.555-7.852-19.898 0-10.453 3.66-18.492 10.978-24.118 7.318-5.624 17.838-8.437 31.56-8.437 6.251 0 12.68.445 19.287 1.336 6.607.844 13.443 2.133 20.507 3.867M427.165 1.974h79.207v20.461h-49.857v19.547h46.883v20.461h-46.883V86.49h51.534v20.46h-80.884V1.975" fill="#eee"/><path d="M.78 2.67v104.28h95.345V2.67H.78zm61.938 5.218h21.313v92.125H62.718V90.42c-2.92 3.907-6.143 6.778-9.656 8.593-3.513 1.816-7.57 2.72-12.187 2.72-8.17 0-14.876-3.247-20.125-9.72-5.25-6.512-7.875-14.87-7.875-25.093S15.5 48.33 20.75 41.857c5.249-6.512 11.955-9.75 20.125-9.75 4.578 0 8.643.926 12.156 2.781 3.552 1.816 6.767 4.664 9.687 8.532V7.888zM48.75 47.482c-4.5 0-7.937 1.654-10.344 4.969-2.368 3.315-3.563 8.154-3.563 14.469 0 6.315 1.195 11.122 3.563 14.437 2.407 3.316 5.844 4.969 10.344 4.969 4.538 0 8.006-1.653 10.375-4.969 2.407-3.315 3.593-8.122 3.593-14.437 0-6.315-1.186-11.154-3.593-14.47-2.369-3.314-5.837-4.968-10.375-4.968z" fill="#FF5F56"/></g></svg>
